Newaita-dark/actions/32/tools-media-optical-format.svg

<svg height="32" viewBox="0 0 32 32" width="32" xmlns="http://www.w3.org/2000/svg"><g fill="#e0e0e0"><path d="m15.875 2.894531c-7.328125 0-13.230469 5.902344-13.230469 13.230469 0 7.332031 5.902344 13.230469 13.230469 13.230469 7.332031 0 13.230469-5.898438 13.230469-13.230469 0-7.328125-5.898438-13.230469-13.230469-13.230469zm0 2.648438c5.867188 0 10.585938 4.71875 10.585938 10.582031 0 5.867188-4.71875 10.585938-10.585938 10.585938-5.863281 0-10.582031-4.71875-10.582031-10.585938 0-5.863281 4.71875-10.582031 10.582031-10.582031zm0 0"/><path d="m15.875 12.15625c-2.199219 0-3.96875 1.769531-3.96875 3.96875s1.769531 3.96875 3.96875 3.96875 3.96875-1.769531 3.96875-3.96875-1.769531-3.96875-3.96875-3.96875zm0 1.324219c1.46875 0 2.648438 1.179687 2.648438 2.644531 0 1.46875-1.179688 2.648438-2.648438 2.648438-1.464844 0-2.644531-1.179688-2.644531-2.648438 0-1.464844 1.179687-2.644531 2.644531-2.644531zm0 0"/><path d="m15.875 8.1875c-4.394531 0-7.9375 3.542969-7.9375 7.9375h1.324219c0-3.664062 2.949219-6.613281 6.613281-6.613281zm0 0"/><path d="m15.875 24.066406c4.398438 0 7.941406-3.542968 7.941406-7.941406h-1.324218c0 3.667969-2.949219 6.617188-6.617188 6.617188zm0 0"/></g></svg>

<?xml version="1.0" encoding="UTF-8"?>
<svg xmlns="http://www.w3.org/2000/svg" xmlns:xlink="http://www.w3.org/1999/xlink" width="32px" height="32px" viewBox="0 0 32 32" version="1.1">
<g id="surface1">
<path style=" stroke:none;fill-rule:nonzero;fill:rgb(87.843138%,87.843138%,87.843138%);fill-opacity:1;" d="M 15.875 2.894531 C 8.546875 2.894531 2.644531 8.796875 2.644531 16.125 C 2.644531 23.457031 8.546875 29.355469 15.875 29.355469 C 23.207031 29.355469 29.105469 23.457031 29.105469 16.125 C 29.105469 8.796875 23.207031 2.894531 15.875 2.894531 Z M 15.875 5.542969 C 21.742188 5.542969 26.460938 10.261719 26.460938 16.125 C 26.460938 21.992188 21.742188 26.710938 15.875 26.710938 C 10.011719 26.710938 5.292969 21.992188 5.292969 16.125 C 5.292969 10.261719 10.011719 5.542969 15.875 5.542969 Z M 15.875 5.542969 "/>
<path style=" stroke:none;fill-rule:nonzero;fill:rgb(87.843138%,87.843138%,87.843138%);fill-opacity:1;" d="M 15.875 12.15625 C 13.675781 12.15625 11.90625 13.925781 11.90625 16.125 C 11.90625 18.324219 13.675781 20.09375 15.875 20.09375 C 18.074219 20.09375 19.84375 18.324219 19.84375 16.125 C 19.84375 13.925781 18.074219 12.15625 15.875 12.15625 Z M 15.875 13.480469 C 17.34375 13.480469 18.523438 14.660156 18.523438 16.125 C 18.523438 17.59375 17.34375 18.773438 15.875 18.773438 C 14.410156 18.773438 13.230469 17.59375 13.230469 16.125 C 13.230469 14.660156 14.410156 13.480469 15.875 13.480469 Z M 15.875 13.480469 "/>
<path style=" stroke:none;fill-rule:nonzero;fill:rgb(87.843138%,87.843138%,87.843138%);fill-opacity:1;" d="M 15.875 8.1875 C 11.480469 8.1875 7.9375 11.730469 7.9375 16.125 L 9.261719 16.125 C 9.261719 12.460938 12.210938 9.511719 15.875 9.511719 Z M 15.875 8.1875 "/>
<path style=" stroke:none;fill-rule:nonzero;fill:rgb(87.843138%,87.843138%,87.843138%);fill-opacity:1;" d="M 15.875 24.066406 C 20.273438 24.066406 23.816406 20.523438 23.816406 16.125 L 22.492188 16.125 C 22.492188 19.792969 19.542969 22.742188 15.875 22.742188 Z M 15.875 24.066406 "/>
</g>
</svg>
